static/icons/ko-fi.svg

<?xml version="1.0" encoding="UTF-8"?>
<svg xmlns="http://www.w3.org/2000/svg" xmlns:xlink="http://www.w3.org/1999/xlink" width="48px" height="48px" viewBox="0 0 48 48" version="1.1">
<g id="surface1">
<path style=" stroke:none;fill-rule:nonzero;fill:rgb(16.078432%,71.372551%,96.470588%);fill-opacity:1;" d="M 24 44 C 12.972656 44 4 35.027344 4 24 C 4 12.972656 12.972656 4 24 4 C 35.027344 4 44 12.972656 44 24 C 44 35.027344 35.027344 44 24 44 Z M 24 44 "/>
<path style=" stroke:none;fill-rule:nonzero;fill:rgb(100%,100%,100%);fill-opacity:1;" d="M 32.226562 15 L 13 15 C 11.894531 15 11 15.894531 11 17 L 11 30 C 11 31.65625 12.34375 33 14 33 L 28 33 C 29.65625 33 31 31.65625 31 30 L 31 28 L 32.5 28 C 34.257812 28 35.941406 27.289062 37.167969 26.023438 C 38.390625 24.761719 39.050781 23.058594 38.996094 21.300781 C 38.890625 17.742188 35.785156 15 32.226562 15 Z M 32.5 24.5 L 31 24.5 L 31 18.5 L 32.5 18.5 C 34.15625 18.5 35.5 19.84375 35.5 21.5 C 35.5 23.15625 34.15625 24.5 32.5 24.5 Z M 32.5 24.5 "/>
<path style=" stroke:none;fill-rule:nonzero;fill:rgb(93.725491%,32.549021%,31.37255%);fill-opacity:1;" d="M 23.539062 19 C 22.453125 19 21.515625 19.605469 21 20.496094 C 20.484375 19.605469 19.546875 19 18.460938 19 C 16.824219 19 15.5 20.363281 15.5 22.042969 C 15.5 25.523438 21 29 21 29 C 21 29 26.5 25.523438 26.5 22.042969 C 26.5 20.363281 25.175781 19 23.539062 19 Z M 23.539062 19 "/>
</g>
</svg>

<svg xmlns="http://www.w3.org/2000/svg" width="48" height="48" baseProfile="basic"><path fill="#29b6f6" d="M24 44C12.972 44 4 35.028 4 24S12.972 4 24 4s20 8.972 20 20-8.972 20-20 20z"/><path fill="#fff" d="M32.227 15H13a2 2 0 0 0-2 2v13a3 3 0 0 0 3 3h14a3 3 0 0 0 3-3v-2h1.5a6.5 6.5 0 0 0 6.497-6.7c-.107-3.557-3.21-6.3-6.77-6.3zm.273 9.5H31v-6h1.5a3 3 0 1 1 0 6z"/><path fill="#ef5350" d="M23.538 19c-1.084 0-2.022.605-2.538 1.498-.516-.893-1.454-1.498-2.538-1.498-1.636 0-2.962 1.363-2.962 3.043C15.5 25.522 21 29 21 29s5.5-3.478 5.5-6.957c0-1.68-1.326-3.043-2.962-3.043z"/></svg>
